!!!COM: Henri Duparc
!!!CNT: Francais
!!!TXO: Francais
!!!OTL: Extase
!!!LYR: Jean Lahor
!!!ENC: Jacob Pegg
!!!YOR: Henri Duparc: Complete Songs for Voice and Piano
!!!YOR: New York: Dover publications, inc., 1995 
!!!YOR: ISBN 0-486-*28466-2
!!!ODT: 1874/
!!NB: Vocal melody and text only encoded.
**kern	**silbe
*clef G2	*
*k[f#c#]	*
*M3/4	*
*MM[lento]	*
!!created: 6/23/03 14:24
!!proofed and posted: 7/18/03 0:19
=10	=10
4r	.
{8g#	{Sur
8a	un
4b	lys
=11	=11
2b-	pa^-
4b-}	-le}
=12	=12
4r	.
{4gn	{mon
4b-	coeur
=13	=13
2.a	dort
=14	=14
8b	D'un
8cc#	som-
2dd	-meil
=15	=15
4.cc#	doux
8cc#	com-
8cc#	-me
8b	la
=16	=16
[2.a	mort
=17	=17
2a]}	|}
4r	.
=18	=18
4r	.
{4ff#	{Mort
4dd	ex-
=19	=19
2ee	-qui-
4ee}	-se,}
=20	=20
4r	.
{4ff#	{Mort
8ee	par-
8dd	-fu-
=21	=21
(2ee	-me
4ccn	|
=22	=22
4b)}	-e}
4r	.
{4b	{Du
=23	=23
4ddn	souf-
4a	-fle
8ddn	de
8ee	la
=24	=24
8ffn	bien~
8gg	~ai-
(2aa	-me/-
=25	=25
4a)}	-e...}
4r	.
4r	.
=34	=34
4r	.
{8g#	{Sur
8a	ton
4b	sein
=35	=35
2b-	pa\-
4b-	-le
=36	=36
4r	.
4gn	mon
4b-	coeur
=37	=37
2.a}	dort}
=38	=38
{8b	{D'un
8c#	som-
2dd	-meil
=39	=39
4.cc#	doux
8cc#	com-
8cc#	-me
8b	la
=40	=40
[2.a	mort
=41	=41
2a]}	|}
4r	.
*-	*-
